svgs/thin/watch-smart.svg

<svg xmlns="http://www.w3.org/2000/svg" viewBox="0 0 384 512"><!--! Font Awesome Pro 6.4.2 by @fontawesome - https://fontawesome.com License - https://fontawesome.com/license (Commercial License) Copyright 2023 Fonticons, Inc. --><path d="M80 40V64H304l0-24c0-13.3-10.7-24-24-24H104C90.7 16 80 26.7 80 40zM64 65.6V40C64 17.9 81.9 0 104 0H280c22.1 0 40 17.9 40 40V65.6c36.5 7.4 64 39.7 64 78.4V368c0 38.7-27.5 71-64 78.4V472c0 22.1-17.9 40-40 40l-176 0c-22.1 0-40-17.9-40-40l0-25.6C27.5 439 0 406.7 0 368V144c0-38.7 27.5-71 64-78.4zM80 472c0 13.3 10.7 24 24 24l176 0c13.3 0 24-10.7 24-24V448H80l0 24zm224-40c35.3 0 64-28.7 64-64V144c0-35.3-28.7-64-64-64H80c-35.3 0-64 28.7-64 64V368c0 35.3 28.6 64 63.9 64l.1 0H304zM200 160v92l60.8 45.6c3.5 2.7 4.3 7.7 1.6 11.2s-7.7 4.3-11.2 1.6l-64-48c-2-1.5-3.2-3.9-3.2-6.4V160c0-4.4 3.6-8 8-8s8 3.6 8 8z"/></svg>

<svg xmlns="http://www.w3.org/2000/svg" viewBox="0 0 384 512"><!--! Font Awesome Pro 6.1.1 by @fontawesome - https://fontawesome.com License - https://fontawesome.com/license (Commercial License) Copyright 2022 Fonticons, Inc. --><path d="M200 252L260.8 297.6C264.3 300.3 265 305.3 262.4 308.8C259.8 312.3 254.7 313.1 251.2 310.4L187.2 262.4C185.2 260.9 184 258.5 184 256V160C184 155.6 187.6 152 192 152C196.4 152 200 155.6 200 160V252zM64 65.6V40C64 17.91 81.91 0 104 0H280C302.1 0 320 17.91 320 40V65.6C356.5 73.01 384 105.3 384 144V368C384 406.7 356.5 438.1 320 446.4V472C320 494.1 302.1 512 280 512H104C81.91 512 64 494.1 64 472V446.4C27.48 438.1 0 406.7 0 368V144C0 105.3 27.48 73.01 64 65.6zM80 64H304V40C304 26.75 293.3 16 280 16H104C90.75 16 80 26.75 80 40V64zM104 496H280C293.3 496 304 485.3 304 472V448H80V472C80 485.3 90.75 496 104 496zM368 368V144C368 108.7 339.3 80 304 80H80C44.65 80 16 108.7 16 144V368C16 403.3 44.62 431.1 79.94 432H304C339.3 432 368 403.3 368 368z"/></svg>
